austria/municipalities/70702.svg

<?xml version="1.0" encoding="UTF-8"?>
<!DOCTYPE svg PUBLIC "-//W3C//DTD SVG 1.1//EN" "http://www.w3.org/Graphics/SVG/1.1/DTD/svg11.dtd">
<svg xmlns="http://www.w3.org/2000/svg" version="1.1" width="166px" height="192px" style="shape-rendering:geometricPrecision; text-rendering:geometricPrecision; image-rendering:optimizeQuality; fill-rule:evenodd; clip-rule:evenodd" xmlns:xlink="http://www.w3.org/1999/xlink">
<g><path style="opacity:1" fill="#100907" d="M -0.5,-0.5 C 54.8333,-0.5 110.167,-0.5 165.5,-0.5C 165.5,39.5 165.5,79.5 165.5,119.5C 157.038,159.629 132.705,183.629 92.5,191.5C 85.5,191.5 78.5,191.5 71.5,191.5C 30.9271,182.927 6.9271,158.261 -0.5,117.5C -0.5,78.1667 -0.5,38.8333 -0.5,-0.5 Z"/></g>
<g><path style="opacity:1" fill="#253166" d="M 82.5,48.5 C 59.9538,51.5464 47.2871,64.3797 44.5,87C 44.7817,93.4214 46.4484,99.4214 49.5,105C 48.944,105.383 48.6107,105.883 48.5,106.5C 35.1019,115.223 21.4352,123.556 7.5,131.5C 5.5787,127.491 4.41203,123.157 4,118.5C 3.50001,80.1681 3.33335,41.8348 3.5,3.5C 29.8333,3.5 56.1667,3.5 82.5,3.5C 82.5,18.5 82.5,33.5 82.5,48.5 Z"/></g>
<g><path style="opacity:1" fill="#d73023" d="M 157.5,131.5 C 157.027,130.094 156.027,129.427 154.5,129.5C 154.027,128.094 153.027,127.427 151.5,127.5C 150.508,127.672 149.842,127.338 149.5,126.5C 149.027,125.094 148.027,124.427 146.5,124.5C 145.508,124.672 144.842,124.338 144.5,123.5C 144.027,122.094 143.027,121.427 141.5,121.5C 140.508,121.672 139.842,121.338 139.5,120.5C 139.027,119.094 138.027,118.427 136.5,118.5C 136.027,117.094 135.027,116.427 133.5,116.5C 132.508,116.672 131.842,116.338 131.5,115.5C 131.027,114.094 130.027,113.427 128.5,113.5C 127.508,113.672 126.842,113.338 126.5,112.5C 126.027,111.094 125.027,110.427 123.5,110.5C 123.027,109.094 122.027,108.427 120.5,108.5C 119.508,108.672 118.842,108.338 118.5,107.5C 117.859,106.518 117.193,105.518 116.5,104.5C 124.631,84.6319 120.297,68.1319 103.5,55C 97.215,51.5158 90.5484,49.3491 83.5,48.5C 83.5,33.5 83.5,18.5 83.5,3.5C 109.5,3.5 135.5,3.5 161.5,3.5C 161.667,42.1681 161.5,80.8348 161,119.5C 160.512,123.833 159.345,127.833 157.5,131.5 Z"/></g>
<g><path style="opacity:1" fill="#050302" d="M 82.5,48.5 C 82.8333,48.5 83.1667,48.5 83.5,48.5C 90.5484,49.3491 97.215,51.5158 103.5,55C 120.297,68.1319 124.631,84.6319 116.5,104.5C 117.193,105.518 117.859,106.518 118.5,107.5C 117.417,107.461 116.417,107.127 115.5,106.5C 100.997,125.73 82.997,129.897 61.5,119C 56.5903,115.254 52.257,111.087 48.5,106.5C 48.6107,105.883 48.944,105.383 49.5,105C 46.4484,99.4214 44.7817,93.4214 44.5,87C 47.2871,64.3797 59.9538,51.5464 82.5,48.5 Z"/></g>
<g><path style="opacity:1" fill="#e4a31c" d="M 70.5,56.5 C 78.84,56.3336 87.1733,56.5003 95.5,57C 91.2784,64.275 88.9451,72.1083 88.5,80.5C 96.7653,80.1421 104.599,78.1421 112,74.5C 112.832,82.5208 112.665,90.5208 111.5,98.5C 104.2,95.0916 96.5331,93.0916 88.5,92.5C 88.5029,101.341 90.8363,109.508 95.5,117C 87.1467,117.832 78.8134,117.665 70.5,116.5C 74.3916,108.934 76.3916,100.934 76.5,92.5C 68.523,93.2694 60.8563,95.2694 53.5,98.5C 52.1667,90.5 52.1667,82.5 53.5,74.5C 60.6457,78.5363 68.3123,80.5363 76.5,80.5C 75.935,72.139 73.935,64.139 70.5,56.5 Z"/></g>
<g><path style="opacity:1" fill="#e7a51c" d="M 48.5,106.5 C 52.257,111.087 56.5903,115.254 61.5,119C 82.997,129.897 100.997,125.73 115.5,106.5C 116.417,107.127 117.417,107.461 118.5,107.5C 118.842,108.338 119.508,108.672 120.5,108.5C 120.973,109.906 121.973,110.573 123.5,110.5C 123.973,111.906 124.973,112.573 126.5,112.5C 126.842,113.338 127.508,113.672 128.5,113.5C 128.973,114.906 129.973,115.573 131.5,115.5C 131.842,116.338 132.508,116.672 133.5,116.5C 133.973,117.906 134.973,118.573 136.5,118.5C 136.973,119.906 137.973,120.573 139.5,120.5C 139.842,121.338 140.508,121.672 141.5,121.5C 141.973,122.906 142.973,123.573 144.5,123.5C 144.842,124.338 145.508,124.672 146.5,124.5C 146.973,125.906 147.973,126.573 149.5,126.5C 149.842,127.338 150.508,127.672 151.5,127.5C 151.973,128.906 152.973,129.573 154.5,129.5C 154.973,130.906 155.973,131.573 157.5,131.5C 149.867,157.968 132.867,175.468 106.5,184C 67.3512,193.498 36.5178,181.665 14,148.5C 10.7434,143.227 8.57678,137.561 7.5,131.5C 21.4352,123.556 35.1019,115.223 48.5,106.5 Z"/></g>
<g><path style="opacity:1" fill="#3a241a" d="M 120.5,108.5 C 122.027,108.427 123.027,109.094 123.5,110.5C 121.973,110.573 120.973,109.906 120.5,108.5 Z"/></g>
<g><path style="opacity:1" fill="#3e2b1c" d="M 123.5,110.5 C 125.027,110.427 126.027,111.094 126.5,112.5C 124.973,112.573 123.973,111.906 123.5,110.5 Z"/></g>
<g><path style="opacity:1" fill="#40261c" d="M 128.5,113.5 C 130.027,113.427 131.027,114.094 131.5,115.5C 129.973,115.573 128.973,114.906 128.5,113.5 Z"/></g>
<g><path style="opacity:1" fill="#4c2116" d="M 133.5,116.5 C 135.027,116.427 136.027,117.094 136.5,118.5C 134.973,118.573 133.973,117.906 133.5,116.5 Z"/></g>
<g><path style="opacity:1" fill="#342014" d="M 136.5,118.5 C 138.027,118.427 139.027,119.094 139.5,120.5C 137.973,120.573 136.973,119.906 136.5,118.5 Z"/></g>
<g><path style="opacity:1" fill="#fdfdfd" d="M -0.5,117.5 C 6.9271,158.261 30.9271,182.927 71.5,191.5C 47.5,191.5 23.5,191.5 -0.5,191.5C -0.5,166.833 -0.5,142.167 -0.5,117.5 Z"/></g>
<g><path style="opacity:1" fill="#fdfdfd" d="M 165.5,119.5 C 165.5,143.5 165.5,167.5 165.5,191.5C 141.167,191.5 116.833,191.5 92.5,191.5C 132.705,183.629 157.038,159.629 165.5,119.5 Z"/></g>
<g><path style="opacity:1" fill="#432a1b" d="M 141.5,121.5 C 143.027,121.427 144.027,122.094 144.5,123.5C 142.973,123.573 141.973,122.906 141.5,121.5 Z"/></g>
<g><path style="opacity:1" fill="#3b271c" d="M 146.5,124.5 C 148.027,124.427 149.027,125.094 149.5,126.5C 147.973,126.573 146.973,125.906 146.5,124.5 Z"/></g>
<g><path style="opacity:1" fill="#412417" d="M 151.5,127.5 C 153.027,127.427 154.027,128.094 154.5,129.5C 152.973,129.573 151.973,128.906 151.5,127.5 Z"/></g>
<g><path style="opacity:1" fill="#3a281b" d="M 154.5,129.5 C 156.027,129.427 157.027,130.094 157.5,131.5C 155.973,131.573 154.973,130.906 154.5,129.5 Z"/></g>
</svg>

<svg xmlns="http://www.w3.org/2000/svg" width="166" height="192" style="shape-rendering:geometricPrecision;text-rendering:geometricPrecision;image-rendering:optimizeQuality;fill-rule:evenodd;clip-rule:evenodd"><path style="opacity:1" fill="#100907" d="M-.5-.5h166v120c-8.462 40.129-32.795 64.129-73 72h-21c-40.573-8.573-64.573-33.239-72-74V-.5z"/><path style="opacity:1" fill="#253166" d="M82.5 48.5c-22.546 3.046-35.213 15.88-38 38.5.282 6.421 1.948 12.421 5 18-.556.383-.89.883-1 1.5a813.817 813.817 0 0 1-41 25c-1.921-4.009-3.088-8.343-3.5-13-.5-38.332-.667-76.665-.5-115h79v45z"/><path style="opacity:1" fill="#d73023" d="M157.5 131.5c-.473-1.406-1.473-2.073-3-2-.473-1.406-1.473-2.073-3-2-.992.172-1.658-.162-2-1-.473-1.406-1.473-2.073-3-2-.992.172-1.658-.162-2-1-.473-1.406-1.473-2.073-3-2-.992.172-1.658-.162-2-1-.473-1.406-1.473-2.073-3-2-.473-1.406-1.473-2.073-3-2-.992.172-1.658-.162-2-1-.473-1.406-1.473-2.073-3-2-.992.172-1.658-.162-2-1-.473-1.406-1.473-2.073-3-2-.473-1.406-1.473-2.073-3-2-.992.172-1.658-.162-2-1a185.977 185.977 0 0 0-2-3c8.131-19.868 3.797-36.368-13-49.5-6.285-3.484-12.952-5.65-20-6.5v-45h78c.167 38.668 0 77.335-.5 116-.488 4.333-1.655 8.333-3.5 12z"/><path style="opacity:1" fill="#050302" d="M82.5 48.5h1c7.048.85 13.715 3.016 20 6.5 16.797 13.132 21.131 29.632 13 49.5a185.977 185.977 0 0 1 2 3 5.576 5.576 0 0 1-3-1c-14.503 19.23-32.503 23.397-54 12.5-4.91-3.746-9.243-7.913-13-12.5.11-.617.444-1.117 1-1.5-3.052-5.579-4.718-11.579-5-18 2.787-22.62 15.454-35.454 38-38.5z"/><path style="opacity:1" fill="#e4a31c" d="M70.5 56.5c8.34-.166 16.673 0 25 .5-4.222 7.275-6.555 15.108-7 23.5 8.265-.358 16.099-2.358 23.5-6a96.54 96.54 0 0 1-.5 24 65.251 65.251 0 0 0-23-6c.003 8.841 2.336 17.008 7 24.5-8.353.832-16.687.665-25-.5 3.892-7.566 5.892-15.566 6-24a74.676 74.676 0 0 0-23 6c-1.333-8-1.333-16 0-24 7.146 4.036 14.812 6.036 23 6a69.487 69.487 0 0 0-6-24z"/><path style="opacity:1" fill="#e7a51c" d="M48.5 106.5c3.757 4.587 8.09 8.754 13 12.5 21.497 10.897 39.497 6.73 54-12.5a5.576 5.576 0 0 0 3 1c.342.838 1.008 1.172 2 1 .473 1.406 1.473 2.073 3 2 .473 1.406 1.473 2.073 3 2 .342.838 1.008 1.172 2 1 .473 1.406 1.473 2.073 3 2 .342.838 1.008 1.172 2 1 .473 1.406 1.473 2.073 3 2 .473 1.406 1.473 2.073 3 2 .342.838 1.008 1.172 2 1 .473 1.406 1.473 2.073 3 2 .342.838 1.008 1.172 2 1 .473 1.406 1.473 2.073 3 2 .342.838 1.008 1.172 2 1 .473 1.406 1.473 2.073 3 2 .473 1.406 1.473 2.073 3 2-7.633 26.468-24.633 43.968-51 52.5-39.149 9.498-69.982-2.335-92.5-35.5-3.257-5.273-5.423-10.939-6.5-17a813.817 813.817 0 0 0 41-25z"/><path style="opacity:1" fill="#3a241a" d="M120.5 108.5c1.527-.073 2.527.594 3 2-1.527.073-2.527-.594-3-2z"/><path style="opacity:1" fill="#3e2b1c" d="M123.5 110.5c1.527-.073 2.527.594 3 2-1.527.073-2.527-.594-3-2z"/><path style="opacity:1" fill="#40261c" d="M128.5 113.5c1.527-.073 2.527.594 3 2-1.527.073-2.527-.594-3-2z"/><path style="opacity:1" fill="#4c2116" d="M133.5 116.5c1.527-.073 2.527.594 3 2-1.527.073-2.527-.594-3-2z"/><path style="opacity:1" fill="#342014" d="M136.5 118.5c1.527-.073 2.527.594 3 2-1.527.073-2.527-.594-3-2z"/><path style="opacity:1" fill="#fdfdfd" d="M-.5 117.5c7.427 40.761 31.427 65.427 72 74h-72v-74zM165.5 119.5v72h-73c40.205-7.871 64.538-31.871 73-72z"/><path style="opacity:1" fill="#432a1b" d="M141.5 121.5c1.527-.073 2.527.594 3 2-1.527.073-2.527-.594-3-2z"/><path style="opacity:1" fill="#3b271c" d="M146.5 124.5c1.527-.073 2.527.594 3 2-1.527.073-2.527-.594-3-2z"/><path style="opacity:1" fill="#412417" d="M151.5 127.5c1.527-.073 2.527.594 3 2-1.527.073-2.527-.594-3-2z"/><path style="opacity:1" fill="#3a281b" d="M154.5 129.5c1.527-.073 2.527.594 3 2-1.527.073-2.527-.594-3-2z"/></svg>
